img/logo-twitter-3.svg

<svg fill="none" height="25" viewBox="0 0 24 25" width="24" xmlns="http://www.w3.org/2000/svg" xmlns:xlink="http://www.w3.org/1999/xlink"><clipPath id="a"><path d="m0 .501953h24v24h-24z"/></clipPath><g clip-path="url(#a)"><path d="m21.5864 7.59501c.0145.21.0145.42.0145.63193 0 6.45776-4.9162 13.90546-13.90551 13.90546v-.0038c-2.65548.0038-5.2558-.7568-7.491288-2.191.386129.0464.774193.0697 1.163228.0706 2.20064.002 4.33838-.7364 6.06967-2.0961-2.09129-.0397-3.92516-1.4032-4.5658-3.3939.73258.1413 1.48742.1123 2.20645-.0842-2.28-.4606-3.92032-2.4638-3.92032-4.79028v-.06194c.67935.37839 1.44.58842 2.21806.61162-2.14742-1.43517-2.809353-4.29194-1.51258-6.52549 2.48129 3.05323 6.14226 4.90936 10.07229 5.10581-.3939-1.69742.1442-3.47613 1.4138-4.66936 1.9684-1.85032 5.0642-1.75548 6.9146.21194 1.0945-.21581 2.1435-.61742 3.1035-1.18645-.3648 1.13129-1.1284 2.09226-2.1484 2.7029.9687-.11419 1.9152-.37355 2.8065-.76935-.6562.98322-1.4826 1.83967-2.4387 2.53161z" fill="#000"/></g></svg>

<svg width="24" height="25" viewBox="0 0 24 25" fill="none" xmlns="http://www.w3.org/2000/svg">
<g clip-path="url(#clip0_3422_3925)">
<path d="M21.5864 7.59501C21.6009 7.80501 21.6009 8.01501 21.6009 8.22694C21.6009 14.6847 16.6847 22.1324 7.69539 22.1324V22.1286C5.03991 22.1324 2.43959 21.3718 0.204102 19.9376C0.590231 19.984 0.978295 20.0073 1.36733 20.0082C3.56797 20.0102 5.70571 19.2718 7.437 17.9121C5.34571 17.8724 3.51184 16.5089 2.8712 14.5182C3.60378 14.6595 4.35862 14.6305 5.07765 14.434C2.79765 13.9734 1.15733 11.9702 1.15733 9.64372V9.58178C1.83668 9.96017 2.59733 10.1702 3.37539 10.1934C1.22797 8.75823 0.566037 5.90146 1.86281 3.66791C4.3441 6.72114 8.00507 8.57727 11.9351 8.77372C11.5412 7.0763 12.0793 5.29759 13.3489 4.10436C15.3173 2.25404 18.4131 2.34888 20.2635 4.3163C21.358 4.10049 22.407 3.69888 23.367 3.12985C23.0022 4.26114 22.2386 5.22211 21.2186 5.83275C22.1873 5.71856 23.1338 5.4592 24.0251 5.0634C23.3689 6.04662 22.5425 6.90307 21.5864 7.59501Z" fill="black"/>
</g>
<defs>
<clipPath id="clip0_3422_3925">
<rect width="24" height="24" fill="white" transform="translate(0 0.501953)"/>
</clipPath>
</defs>
</svg>
